SVG_Azure_Grouped/Security/DDoS Protection.svg

<?xml version="1.0" encoding="UTF-8" standalone="no"?>
<!-- Generated by Microsoft Visio, SVG Export DDoS Protection.svg Page-1 -->

<svg
   xmlns:dc="http://purl.org/dc/elements/1.1/"
   xmlns:cc="http://creativecommons.org/ns#"
   xmlns:rdf="http://www.w3.org/1999/02/22-rdf-syntax-ns#"
   xmlns:svg="http://www.w3.org/2000/svg"
   xmlns="http://www.w3.org/2000/svg"
   xmlns:sodipodi="http://sodipodi.sourceforge.net/DTD/sodipodi-0.dtd"
   xmlns:inkscape="http://www.inkscape.org/namespaces/inkscape"
   width="0.59055257in"
   height="0.78740156in"
   viewBox="0 0 42.519803 56.6932"
   xml:space="preserve"
   class="st6"
   version="1.1"
   id="svg94"
   sodipodi:docname="DDoS Protection.svg"
   style="font-size:12px;overflow:visible;color-interpolation-filters:sRGB;fill:none;fill-rule:evenodd;stroke-linecap:square;stroke-miterlimit:3"
   inkscape:version="0.92.5 (2060ec1f9f, 2020-04-08)"><metadata
   id="metadata100"><rdf:RDF><cc:Work
       rdf:about=""><dc:format>image/svg+xml</dc:format><dc:type
         rdf:resource="http://purl.org/dc/dcmitype/StillImage" /></cc:Work></rdf:RDF></metadata><defs
   id="defs98" /><sodipodi:namedview
   pagecolor="#ffffff"
   bordercolor="#666666"
   borderopacity="1"
   objecttolerance="10"
   gridtolerance="10"
   guidetolerance="10"
   inkscape:pageopacity="0"
   inkscape:pageshadow="2"
   inkscape:window-width="640"
   inkscape:window-height="480"
   id="namedview96"
   showgrid="false"
   inkscape:zoom="1.7193066"
   inkscape:cx="28.346323"
   inkscape:cy="23.279613"
   inkscape:window-x="0"
   inkscape:window-y="0"
   inkscape:window-maximized="0"
   inkscape:current-layer="svg94" />
	<style
   type="text/css"
   id="style2">
	<![CDATA[
		.st1 {fill:#57a300;stroke:none;stroke-linecap:butt;stroke-width:12.24}
		.st2 {fill:#000000;stroke:none;stroke-linecap:butt;stroke-width:12.24}
		.st3 {fill:#88aa00;stroke:none;stroke-linecap:butt;stroke-width:12.24}
		.st4 {fill:#00ff00;stroke:none;stroke-linecap:butt;stroke-width:12.24}
		.st5 {fill:#4d4d4d;stroke:none;stroke-linecap:butt;stroke-width:24.2787}
		.st6 {fill:none;fill-rule:evenodd;font-size:12px;overflow:visible;stroke-linecap:square;stroke-miterlimit:3}
	]]>
	</style>

	<g
   id="g92"
   transform="translate(-12.240156,-12.2411)">
		<title
   id="title4">Page-1</title>
		<g
   id="group16861-1"
   transform="translate(12.24,-34.0157)">
			<title
   id="title6">DDoS Protection.16861</title>
			<g
   id="group16862-2">
				<title
   id="title8">g20</title>
				<g
   id="shape16863-3">
					<title
   id="title10">path2</title>
					<path
   d="M 36.18,53.01 C 23.4,51.64 21.26,46.26 21.26,46.26 c 0,0 -2.88,7.07 -21.26,7.07 v 29.04 c 0,3.51 2,6.8 4.76,9.68 6.27,6.51 16.5,10.9 16.5,10.9 0,0 21.26,-9.11 21.26,-20.58 V 53.33 c -2.36,0 -4.47,-0.11 -6.34,-0.32 z"
   class="st1"
   id="path12"
   inkscape:connector-curvature="0"
   style="fill:#57a300;stroke:none;stroke-width:12.23999977;stroke-linecap:butt" />
				</g>
				<g
   id="shape16864-5"
   transform="translate(11.9796,-12.4724)">
					<title
   id="title15">path4</title>
					<path
   d="m 18.56,101.34 c 0,0.89 -0.72,1.61 -1.6,1.61 H 1.6 C 0.72,102.95 0,102.23 0,101.34 V 72.81 C 0,71.92 0.72,71.2 1.6,71.2 h 15.36 c 0.88,0 1.6,0.72 1.6,1.61 z"
   class="st2"
   id="path17"
   inkscape:connector-curvature="0"
   style="fill:#000000;stroke:none;stroke-width:12.23999977;stroke-linecap:butt" />
				</g>
				<g
   id="shape16865-7"
   transform="translate(14.6245,-37.0908)">
					<title
   id="title20">path6</title>
					<path
   d="M 0,100.92 C 0,99.8 0.9,98.9 2.02,98.9 h 9.23 c 1.12,0 2.02,0.9 2.02,2.02 0,1.12 -0.9,2.03 -2.02,2.03 H 2.02 C 0.9,102.95 0,102.04 0,100.92 Z"
   class="st2"
   id="path22"
   inkscape:connector-curvature="0"
   style="fill:#000000;stroke:none;stroke-width:12.23999977;stroke-linecap:butt" />
				</g>
				<g
   id="shape16866-9"
   transform="translate(15.3739,-37.7575)">
					<title
   id="title25">ellipse8</title>
					<ellipse
   cx="1.35375"
   cy="101.588"
   rx="1.35375"
   ry="1.36063"
   class="st2"
   id="ellipse27"
   style="fill:#000000;stroke:none;stroke-width:12.23999977;stroke-linecap:butt" />
				</g>
				<g
   id="shape16867-11"
   transform="translate(14.6245,-31.4215)">
					<title
   id="title30">path10</title>
					<path
   d="M 0,100.92 C 0,99.8 0.9,98.9 2.02,98.9 h 9.23 c 1.12,0 2.02,0.9 2.02,2.02 0,1.12 -0.9,2.03 -2.02,2.03 H 2.02 C 0.9,102.95 0,102.04 0,100.92 Z"
   class="st2"
   id="path32"
   inkscape:connector-curvature="0"
   style="fill:#000000;stroke:none;stroke-width:12.23999977;stroke-linecap:butt" />
				</g>
				<g
   id="shape16868-13"
   transform="translate(15.3739,-32.0882)">
					<title
   id="title35">ellipse12</title>
					<ellipse
   cx="1.35375"
   cy="101.588"
   rx="1.35375"
   ry="1.36063"
   class="st2"
   id="ellipse37"
   style="fill:#000000;stroke:none;stroke-width:12.23999977;stroke-linecap:butt" />
				</g>
				<g
   id="shape16869-15"
   transform="translate(14.6245,-25.7522)">
					<title
   id="title40">path14</title>
					<path
   d="M 0,100.92 C 0,99.8 0.9,98.9 2.02,98.9 h 9.23 c 1.12,0 2.02,0.9 2.02,2.02 0,1.12 -0.9,2.03 -2.02,2.03 H 2.02 C 0.9,102.95 0,102.04 0,100.92 Z"
   class="st2"
   id="path42"
   inkscape:connector-curvature="0"
   style="fill:#000000;stroke:none;stroke-width:12.23999977;stroke-linecap:butt" />
				</g>
				<g
   id="shape16870-17"
   transform="translate(15.3739,-26.4189)">
					<title
   id="title45">ellipse16</title>
					<ellipse
   cx="1.35375"
   cy="101.588"
   rx="1.35375"
   ry="1.36063"
   class="st2"
   id="ellipse47"
   style="fill:#000000;stroke:none;stroke-width:12.23999977;stroke-linecap:butt" />
				</g>
				<g
   id="shape16871-19"
   transform="translate(0,-10.9032)">
					<title
   id="title50">path18</title>
					<path
   d="m 26.52,75.92 9.66,-12 C 23.4,62.54 21.26,57.16 21.26,57.16 c 0,0 -2.88,7.08 -21.26,7.08 v 29.03 c 0,3.52 2,6.8 4.76,9.68 l 7.14,-8.87 z"
   class="st3"
   id="path52"
   inkscape:connector-curvature="0"
   style="fill:#88aa00;stroke:none;stroke-width:12.23999977;stroke-linecap:butt" />
				</g>
				<g
   id="shape16872-21"
   transform="translate(11.9796,-12.4724)">
					<title
   id="title55">path4-0</title>
					<path
   d="m 18.56,101.34 c 0,0.89 -0.72,1.61 -1.6,1.61 H 1.6 C 0.72,102.95 0,102.23 0,101.34 V 72.81 C 0,71.92 0.72,71.2 1.6,71.2 h 15.36 c 0.88,0 1.6,0.72 1.6,1.61 z"
   class="st2"
   id="path57"
   inkscape:connector-curvature="0"
   style="fill:#000000;stroke:none;stroke-width:12.23999977;stroke-linecap:butt" />
				</g>
				<g
   id="shape16873-23"
   transform="translate(14.6245,-39.1181)">
					<title
   id="title60">rect45</title>
					<rect
   x="0"
   y="100.546"
   width="2.45769"
   height="2.40224"
   class="st4"
   id="rect62"
   style="fill:#00ff00;stroke:none;stroke-width:12.23999977;stroke-linecap:butt" />
				</g>
				<g
   id="shape16874-25"
   transform="translate(14.6245,-35.6241)">
					<title
   id="title65">rect45-7</title>
					<rect
   x="0"
   y="100.546"
   width="2.45769"
   height="2.40224"
   class="st4"
   id="rect67"
   style="fill:#00ff00;stroke:none;stroke-width:12.23999977;stroke-linecap:butt" />
				</g>
				<g
   id="shape16875-27"
   transform="translate(14.6245,-32.13)">
					<title
   id="title70">rect45-7-8</title>
					<rect
   x="0"
   y="100.546"
   width="2.45769"
   height="2.40224"
   class="st4"
   id="rect72"
   style="fill:#00ff00;stroke:none;stroke-width:12.23999977;stroke-linecap:butt" />
				</g>
				<g
   id="shape16876-29"
   transform="translate(18.1881,-39.1181)">
					<title
   id="title75">rect45-78</title>
					<rect
   x="0"
   y="100.546"
   width="9.6697502"
   height="2.40224"
   class="st5"
   id="rect77"
   style="fill:#4d4d4d;stroke:none;stroke-width:24.27869987;stroke-linecap:butt" />
				</g>
				<g
   id="shape16877-31"
   transform="translate(18.1881,-35.6241)">
					<title
   id="title80">rect45-7-2</title>
					<rect
   x="0"
   y="100.546"
   width="9.6697502"
   height="2.40224"
   class="st5"
   id="rect82"
   style="fill:#4d4d4d;stroke:none;stroke-width:24.27869987;stroke-linecap:butt" />
				</g>
				<g
   id="shape16878-33"
   transform="translate(18.1881,-32.13)">
					<title
   id="title85">rect45-7-8-8</title>
					<rect
   x="0"
   y="100.546"
   width="9.6697502"
   height="2.40224"
   class="st5"
   id="rect87"
   style="fill:#4d4d4d;stroke:none;stroke-width:24.27869987;stroke-linecap:butt" />
				</g>
			</g>
		</g>
	</g>
</svg>

<?xml version="1.0" encoding="UTF-8" standalone="no"?>
<!DOCTYPE svg PUBLIC "-//W3C//DTD SVG 1.1//EN" "http://www.w3.org/Graphics/SVG/1.1/DTD/svg11.dtd">
<!-- Generated by Microsoft Visio, SVG Export DDoS Protection.svg Page-1 -->
<svg xmlns="http://www.w3.org/2000/svg" xmlns:xlink="http://www.w3.org/1999/xlink" xmlns:ev="http://www.w3.org/2001/xml-events"
		width="0.930551in" height="1.42984in" viewBox="0 0 66.9997 102.949" xml:space="preserve" color-interpolation-filters="sRGB"
		class="st6">
	<style type="text/css">
	<![CDATA[
		.st1 {fill:#57a300;stroke:none;stroke-linecap:butt;stroke-width:12.24}
		.st2 {fill:#000000;stroke:none;stroke-linecap:butt;stroke-width:12.24}
		.st3 {fill:#88aa00;stroke:none;stroke-linecap:butt;stroke-width:12.24}
		.st4 {fill:#00ff00;stroke:none;stroke-linecap:butt;stroke-width:12.24}
		.st5 {fill:#4d4d4d;stroke:none;stroke-linecap:butt;stroke-width:24.2787}
		.st6 {fill:none;fill-rule:evenodd;font-size:12px;overflow:visible;stroke-linecap:square;stroke-miterlimit:3}
	]]>
	</style>

	<g>
		<title>Page-1</title>
		<g id="group16468-1" transform="translate(12.24,-34.0157)">
			<title>DDoS Protection.16468</title>
			<g id="group16469-2">
				<title>g20</title>
				<g id="shape16470-3">
					<title>path2</title>
					<path d="M36.18 53.01 C23.4 51.64 21.26 46.26 21.26 46.26 C21.26 46.26 18.38 53.33 0 53.33 L0 82.37 C0 85.88
								 2 89.17 4.76 92.05 C11.03 98.56 21.26 102.95 21.26 102.95 C21.26 102.95 42.52 93.84 42.52 82.37
								 L42.52 53.33 C40.16 53.33 38.05 53.22 36.18 53.01 Z" class="st1"/>
				</g>
				<g id="shape16471-5" transform="translate(11.9796,-12.4724)">
					<title>path4</title>
					<path d="M18.56 101.34 C18.56 102.23 17.84 102.95 16.96 102.95 L1.6 102.95 C0.72 102.95 0 102.23 0 101.34 L0
								 72.81 C0 71.92 0.72 71.2 1.6 71.2 L16.96 71.2 C17.84 71.2 18.56 71.92 18.56 72.81 L18.56 101.34
								 Z" class="st2"/>
				</g>
				<g id="shape16472-7" transform="translate(14.6245,-37.0908)">
					<title>path6</title>
					<path d="M0 100.92 C0 99.8 0.9 98.9 2.02 98.9 L11.25 98.9 C12.37 98.9 13.27 99.8 13.27 100.92 C13.27 102.04 12.37
								 102.95 11.25 102.95 L2.02 102.95 C0.9 102.95 0 102.04 0 100.92 Z" class="st2"/>
				</g>
				<g id="shape16473-9" transform="translate(15.3739,-37.7575)">
					<title>ellipse8</title>
					<ellipse cx="1.35375" cy="101.588" rx="1.35375" ry="1.36063" class="st2"/>
				</g>
				<g id="shape16474-11" transform="translate(14.6245,-31.4215)">
					<title>path10</title>
					<path d="M0 100.92 C0 99.8 0.9 98.9 2.02 98.9 L11.25 98.9 C12.37 98.9 13.27 99.8 13.27 100.92 C13.27 102.04 12.37
								 102.95 11.25 102.95 L2.02 102.95 C0.9 102.95 0 102.04 0 100.92 Z" class="st2"/>
				</g>
				<g id="shape16475-13" transform="translate(15.3739,-32.0882)">
					<title>ellipse12</title>
					<ellipse cx="1.35375" cy="101.588" rx="1.35375" ry="1.36063" class="st2"/>
				</g>
				<g id="shape16476-15" transform="translate(14.6245,-25.7522)">
					<title>path14</title>
					<path d="M0 100.92 C0 99.8 0.9 98.9 2.02 98.9 L11.25 98.9 C12.37 98.9 13.27 99.8 13.27 100.92 C13.27 102.04 12.37
								 102.95 11.25 102.95 L2.02 102.95 C0.9 102.95 0 102.04 0 100.92 Z" class="st2"/>
				</g>
				<g id="shape16477-17" transform="translate(15.3739,-26.4189)">
					<title>ellipse16</title>
					<ellipse cx="1.35375" cy="101.588" rx="1.35375" ry="1.36063" class="st2"/>
				</g>
				<g id="shape16478-19" transform="translate(-2.07834E-13,-10.9032)">
					<title>path18</title>
					<path d="M26.52 75.92 L36.18 63.92 C23.4 62.54 21.26 57.16 21.26 57.16 C21.26 57.16 18.38 64.24 0 64.24 L0 93.27
								 C0 96.79 2 100.07 4.76 102.95 L11.9 94.08 L26.52 75.92 Z" class="st3"/>
				</g>
				<g id="shape16479-21" transform="translate(11.9796,-12.4724)">
					<title>path4-0</title>
					<path d="M18.56 101.34 C18.56 102.23 17.84 102.95 16.96 102.95 L1.6 102.95 C0.72 102.95 0 102.23 0 101.34 L0
								 72.81 C0 71.92 0.72 71.2 1.6 71.2 L16.96 71.2 C17.84 71.2 18.56 71.92 18.56 72.81 L18.56 101.34
								 Z" class="st2"/>
				</g>
				<g id="shape16480-23" transform="translate(14.6245,-39.1181)">
					<title>rect45</title>
					<rect x="0" y="100.546" width="2.45769" height="2.40224" class="st4"/>
				</g>
				<g id="shape16481-25" transform="translate(14.6245,-35.6241)">
					<title>rect45-7</title>
					<rect x="0" y="100.546" width="2.45769" height="2.40224" class="st4"/>
				</g>
				<g id="shape16482-27" transform="translate(14.6245,-32.13)">
					<title>rect45-7-8</title>
					<rect x="0" y="100.546" width="2.45769" height="2.40224" class="st4"/>
				</g>
				<g id="shape16483-29" transform="translate(18.1881,-39.1181)">
					<title>rect45-78</title>
					<rect x="0" y="100.546" width="9.66975" height="2.40224" class="st5"/>
				</g>
				<g id="shape16484-31" transform="translate(18.1881,-35.6241)">
					<title>rect45-7-2</title>
					<rect x="0" y="100.546" width="9.66975" height="2.40224" class="st5"/>
				</g>
				<g id="shape16485-33" transform="translate(18.1881,-32.13)">
					<title>rect45-7-8-8</title>
					<rect x="0" y="100.546" width="9.66975" height="2.40224" class="st5"/>
				</g>
			</g>
		</g>
	</g>
</svg>
